brandFactory_export/2.Regular/Lista de consultas _2Regular.svg

<?xml version="1.0" encoding="UTF-8"?>
<svg width="24px" height="24px" viewBox="0 0 24 24" version="1.1" xmlns="http://www.w3.org/2000/svg" xmlns:xlink="http://www.w3.org/1999/xlink">
    <title>2.Regular/Lista de consultas _2Regular</title>
    <g id="Symbols" stroke="none" stroke-width="1" fill="none" fill-rule="evenodd">
        <g id="2.Regular/Lista-de-consultas-_2Regular" fill="#5CB615" fill-rule="nonzero">
            <path d="M20.0739496,21.5697479 C18.7663866,21.9596639 17.0420168,22.1747899 15.2168067,22.1747899 C13.394958,22.1747899 11.6705882,21.9596639 10.3630252,21.5697479 C9.40504202,21.2806723 8.25882353,20.7697479 8.25882353,19.9731092 L8.25882353,18.702521 C8.39663866,18.712605 8.53109244,18.7226891 8.67226891,18.7226891 C9.87226891,18.7226891 10.9882353,18.3630252 11.9260504,17.7478992 C11.9663866,17.7613445 12.0033613,17.7848739 12.0504202,17.7915966 C13.0487395,17.9361345 14.1176471,18.010084 15.2336134,18.010084 C17.2033613,18.010084 19.0756303,17.7747899 20.5008403,17.3445378 C21.1394958,17.1529412 21.7008403,16.897479 22.1781513,16.6016807 L22.1781513,19.9731092 C22.1781513,20.7697479 21.0319328,21.2840336 20.0739496,21.5697479 Z M8.67226891,8.25546218 C11.1596639,8.25546218 13.1865546,10.2789916 13.1865546,12.7663866 C13.1865546,15.2537815 11.1630252,17.2773109 8.67226891,17.2773109 C6.18487395,17.2773109 4.15798319,15.2537815 4.15798319,12.7663866 C4.15798319,10.2823529 6.18487395,8.25546218 8.67226891,8.25546218 Z M8.25882353,5.2302521 C8.71932773,5.51596639 9.28403361,5.76470588 9.95966387,5.96638655 C11.3915966,6.39663866 13.2638655,6.63193277 15.2302521,6.63193277 C17.1966387,6.63193277 19.0689076,6.39663866 20.5008403,5.96638655 C21.1731092,5.76470588 21.7243697,5.52605042 22.1781513,5.25042017 L22.1781513,8.97478992 C21.9394958,9.36470588 21.2773109,9.90252101 20.087395,10.2621849 C18.789916,10.6521008 17.0655462,10.8672269 15.2336134,10.8672269 C15.112605,10.8739496 14.6789916,10.8672269 14.3092437,10.8504202 C13.5092437,8.50420168 11.287395,6.81008403 8.67226891,6.81008403 C8.53109244,6.81008403 8.39663866,6.82016807 8.25882353,6.8302521 L8.25882353,5.2302521 Z M10.3630252,2.05042017 C11.6571429,1.6605042 13.3815126,1.44537815 15.2168067,1.44537815 C17.0521008,1.44537815 18.7764706,1.6605042 20.0739496,2.05042017 C20.897479,2.29915966 21.8521008,2.7092437 22.107563,3.32436975 C21.8991597,3.80168067 21.1865546,4.24537815 20.0840336,4.57815126 C18.7831933,4.96806723 17.0588235,5.18319328 15.2302521,5.18319328 C13.3983193,5.18319328 11.6739496,4.96806723 10.3764706,4.57815126 C9.24705882,4.23529412 8.53445378,3.78151261 8.34285714,3.2907563 C8.56134454,2.82352941 9.26386555,2.38319328 10.3630252,2.05042017 Z M14.6319328,12.7697479 C14.6319328,12.6151261 14.6218487,12.4605042 14.6084034,12.3058824 C14.887395,12.312605 15.1428571,12.312605 15.2336134,12.312605 C17.2,12.312605 19.0722689,12.0739496 20.5008403,11.6436975 C21.1394958,11.4521008 21.7008403,11.1966387 22.1781513,10.9008403 L22.1781513,14.6789916 C21.9394958,15.0689076 21.2773109,15.6067227 20.087395,15.9663866 C18.789916,16.3563025 17.0689076,16.5714286 15.2336134,16.5714286 C14.5747899,16.5714286 13.9428571,16.5344538 13.3277311,16.4806723 C14.1411765,15.4588235 14.6319328,14.1714286 14.6319328,12.7697479 L14.6319328,12.7697479 Z M20.4907563,0.668907563 C19.0621849,0.238655462 17.189916,0.00336134454 15.2168067,0.00336134454 C13.2436975,0.00336134454 11.3747899,0.242016807 9.94621849,0.668907563 C8.22521008,1.18655462 7.2,1.97647059 6.90420168,3.01176471 L6.90420168,3.01512605 C6.84705882,3.22016807 6.81680672,3.43529412 6.81680672,3.64705882 L6.81680672,7.11260504 C4.44033613,7.89579832 2.71596639,10.1344538 2.71596639,12.7697479 C2.71596639,14.2285714 3.24369748,15.5630252 4.11764706,16.6016807 L0.21512605,20.5042017 C-0.0672268908,20.7865546 -0.0672268908,21.2436975 0.21512605,21.5260504 C0.356302521,21.6672269 0.541176471,21.7378151 0.72605042,21.7378151 C0.91092437,21.7378151 1.09579832,21.6672269 1.23697479,21.5260504 L5.17647059,17.5798319 C5.67058824,17.9428571 6.22184874,18.2285714 6.81344538,18.4235294 L6.81344538,19.9731092 C6.81344538,21.3243697 7.86890756,22.3260504 9.94621849,22.9546218 C11.3848739,23.3848739 13.2571429,23.6201681 15.2168067,23.6201681 C17.1764706,23.6201681 19.0487395,23.3848739 20.4907563,22.9546218 C22.5680672,22.3294118 23.6235294,21.3243697 23.6235294,19.9731092 L23.6235294,3.64369748 C23.6235294,2.29579832 22.5680672,1.29411765 20.4907563,0.668907563 Z" id="Lista-de-consultas-_2Regular"></path>
        </g>
    </g>
</svg>

<svg width="24" height="24" viewBox="0 0 24 24" xmlns="http://www.w3.org/2000/svg"><path d="M20.074 21.57c-1.308.39-3.032.605-4.857.605-1.822 0-3.546-.215-4.854-.605-.958-.29-2.104-.8-2.104-1.597v-1.27c.138.01.272.02.413.02 1.2 0 2.316-.36 3.254-.975.04.013.077.037.124.044.999.144 2.068.218 3.184.218 1.97 0 3.842-.235 5.267-.665a7.001 7.001 0 001.677-.743v3.371c0 .797-1.146 1.311-2.104 1.597zM8.672 8.255a4.519 4.519 0 014.515 4.511 4.517 4.517 0 01-4.515 4.511 4.519 4.519 0 01-4.514-4.51 4.521 4.521 0 014.514-4.512zM8.26 5.23c.46.286 1.025.535 1.7.736 1.433.43 3.305.666 5.271.666 1.967 0 3.839-.235 5.27-.666.673-.201 1.224-.44 1.678-.716v3.725c-.239.39-.9.928-2.09 1.287-1.298.39-3.022.605-4.854.605-.121.007-.555 0-.925-.017a5.964 5.964 0 00-5.637-4.04c-.14 0-.275.01-.413.02v-1.6zm2.104-3.18c1.294-.39 3.019-.605 4.854-.605s3.56.216 4.857.605c.823.25 1.778.66 2.034 1.274-.209.478-.921.921-2.024 1.254-1.3.39-3.025.605-4.854.605-1.832 0-3.556-.215-4.854-.605-1.129-.343-1.842-.796-2.033-1.287.218-.467.92-.908 2.02-1.24zm4.269 10.72c0-.155-.01-.31-.024-.464.28.007.535.007.626.007 1.966 0 3.838-.24 5.267-.67a7.001 7.001 0 001.677-.742v3.778c-.239.39-.9.928-2.09 1.287-1.298.39-3.02.605-4.854.605-.66 0-1.291-.037-1.906-.09a5.939 5.939 0 001.304-3.711zM20.49.669C19.062.239 17.19.003 15.217.003c-1.973 0-3.842.239-5.27.666-1.722.518-2.747 1.307-3.043 2.343v.003c-.057.205-.087.42-.087.632v3.466c-2.377.783-4.101 3.021-4.101 5.657a5.93 5.93 0 001.402 3.832L.215 20.504a.722.722 0 101.022 1.022l3.94-3.946a5.862 5.862 0 001.636.844v1.55c0 1.35 1.056 2.352 3.133 2.98 1.439.43 3.311.666 5.27.666 1.96 0 3.833-.235 5.275-.665 2.077-.626 3.133-1.63 3.133-2.982V3.643c0-1.347-1.056-2.349-3.133-2.974z" fill="#5CB615" fill-rule="nonzero"/></svg>
